svgs/duotone/whistle.svg

<svg xmlns="http://www.w3.org/2000/svg" viewBox="0 0 640 512"><!-- Font Awesome Pro 6.0.0-alpha2 by @fontawesome - https://fontawesome.com License - https://fontawesome.com/license (Commercial License) --><defs><style>.fa-secondary{opacity:.4}</style></defs><path d="M627.658 326.75L491.474 220.828L448.001 248L416.001 224L438.275 179.453L339.657 102.75L339.532 102.91C307.364 78.594 267.434 64 224.001 64C117.961 64 32 149.961 32 256S117.961 448 224.001 448C287.653 448 343.903 416.898 378.837 369.199L529.689 444.625C534.252 446.906 539.127 448 544.002 448C552.283 448 560.47 444.781 566.627 438.625L630.627 374.625C637.127 368.125 640.502 359.187 639.939 350C639.377 340.844 634.908 332.375 627.658 326.75ZM224.001 320C188.655 320 160 291.344 160 256C160 220.652 188.655 192 224.001 192S288.001 220.652 288.001 256C288.001 291.344 259.346 320 224.001 320Z" class="fa-secondary"/><path d="M64 64C28.654 64 0 92.652 0 128C0 156.461 18.705 180.305 44.397 188.617C44.395 188.621 44.395 188.625 44.393 188.629C50.553 172.219 58.856 156.906 69.028 142.984C67.424 143.523 65.783 144 64 144C55.178 144 48 136.824 48 128S55.178 112 64 112S80 119.176 80 128C80 128.594 79.725 129.094 79.662 129.668C91.119 116.59 104.246 105.041 118.834 95.465C107.676 76.703 87.412 64 64 64ZM224.001 192C188.655 192 160 220.652 160 256C160 291.344 188.655 320 224.001 320S288.001 291.344 288.001 256C288.001 220.652 259.346 192 224.001 192Z" class="fa-primary"/></svg>

<svg xmlns="http://www.w3.org/2000/svg" viewBox="0 0 640 512"><!--! Font Awesome Pro 6.0.0-alpha3 by @fontawesome - https://fontawesome.com License - https://fontawesome.com/license (Commercial License) --><defs><style>.fa-secondary{opacity:.4}</style></defs><path class="fa-primary" d="M63.1 64C28.65 64-.0003 92.65-.0003 128c0 28.46 18.7 52.31 44.4 60.62c-.002 .0039 .002-.0039 0 0c6.16-16.41 14.46-31.71 24.63-45.64C67.42 143.5 65.78 144 63.1 144C55.18 144 47.1 136.8 47.1 128s7.178-16 16-16S79.1 119.2 79.1 128c0 .5938-.2754 1.094-.3379 1.668c11.46-13.08 24.58-24.63 39.17-34.2C107.7 76.7 87.41 64 63.1 64zM224 192C188.7 192 159.1 220.7 159.1 256c0 35.34 28.65 64 64 64s64-28.66 64-64C288 220.7 259.3 192 224 192z"/><path class="fa-secondary" d="M627.7 326.8L491.5 220.8L448 248L416 224l22.27-44.55l-98.62-76.7C307.5 78.43 267.4 64 224 64C117.1 64 31.1 149.1 31.1 256s85.96 192 192 192c63.65 0 119.9-31.1 154.8-78.8l150.9 75.43C534.3 446.9 539.1 448 544 448c8.281 0 16.47-3.219 22.63-9.375l64-64c6.5-6.5 9.875-15.44 9.312-24.62C639.4 340.8 634.9 332.4 627.7 326.8zM224 320c-35.35 0-64-28.66-64-64c0-35.35 28.65-64 64-64s64 28.65 64 64C288 291.3 259.3 320 224 320z"/></svg>
